public/Icons/island-svgrepo-com.svg

<?xml version="1.0" encoding="iso-8859-1"?>
<!-- Uploaded to: SVG Repo, www.svgrepo.com, Generator: SVG Repo Mixer Tools -->
<svg fill="#000000" version="1.1" id="Layer_1" xmlns="http://www.w3.org/2000/svg" xmlns:xlink="http://www.w3.org/1999/xlink" 
	 viewBox="0 0 512 512" xml:space="preserve">
<g>
	<g>
		<g>
			<path d="M261.199,488.514l-6.996-41.977c2.367-0.427,4.538-1.65,6.117-3.514c1.985-2.344,2.84-5.442,2.334-8.472l-8.451-50.708
				c2.367-0.427,4.538-1.65,6.117-3.514c1.985-2.344,2.84-5.442,2.334-8.472l-8.451-50.708c2.367-0.427,4.538-1.65,6.117-3.514
				c1.985-2.344,2.84-5.442,2.334-8.472l-8.451-50.708c2.367-0.427,4.538-1.65,6.117-3.514c1.985-2.344,2.84-5.442,2.334-8.471
				l-7.187-43.123l165.916,29.01c0.601,0.106,1.203,0.156,1.801,0.156c3.149,0,6.17-1.425,8.172-3.939
				c2.381-2.99,2.939-7.044,1.456-10.567c-18.011-42.75-55.969-73.05-101.562-81.055c-0.002,0-0.004,0-0.005-0.001l77.515-41.19
				c3.378-1.796,5.507-5.293,5.545-9.121c0.04-3.825-2.016-7.367-5.356-9.232c-20.217-11.282-42.481-17.072-65.037-17.188
				l40.416-32.866c2.971-2.417,4.381-6.264,3.678-10.029c-0.704-3.765-3.411-6.842-7.054-8.021
				C336.728-5,288.96,3.85,253.204,32.962c-16.063,13.002-28.815,29.595-37.424,48.345c-8.604-18.749-21.345-35.337-37.386-48.328
				C142.594,3.852,94.825-5.001,50.6,9.307c-3.643,1.179-6.35,4.256-7.054,8.021c-0.705,3.764,0.706,7.611,3.678,10.028
				l40.723,33.12C64.9,60.444,41.957,66.21,21.668,77.521c-3.343,1.863-5.399,5.404-5.36,9.232c0.038,3.826,2.165,7.326,5.544,9.121
				l79.011,41.99c-43.49,9.193-79.495,38.859-96.899,80.142c-1.485,3.523-0.928,7.577,1.455,10.567
				c2.002,2.515,5.024,3.94,8.173,3.94c0.597,0,1.201-0.051,1.8-0.156l160.578-28.069l-7.07,42.171
				c-0.508,3.03,0.344,6.131,2.329,8.477c1.579,1.866,3.751,3.091,6.119,3.518l-8.451,50.708c-0.505,3.03,0.349,6.127,2.334,8.472
				c1.579,1.864,3.75,3.087,6.117,3.514l-8.451,50.708c-0.505,3.03,0.349,6.127,2.334,8.472c1.579,1.864,3.75,3.087,6.117,3.514
				l-8.451,50.708c-0.505,3.03,0.349,6.127,2.334,8.472c1.579,1.864,3.75,3.087,6.117,3.514l-6.996,41.977H0v20.898h512v-20.898
				H261.199V488.514z M380.125,87.312l-94.641,50.29l-0.004,0.003l-53.502,28.456c1.999-7.453,4.771-14.705,8.295-21.698
				l73.047-59.269C335.647,79.112,358.728,79.933,380.125,87.312z M266.373,49.188c24.948-20.313,56.807-28.957,88.212-24.581
				l-52.708,42.862l-74.034,60.069c-0.32-3.86-0.812-7.733-1.447-11.612C231.67,89.487,245.797,65.841,266.373,49.188z
				 M76.965,24.606c31.408-4.375,63.277,4.275,88.255,24.599c20.542,16.634,34.662,40.281,39.935,66.724
				c-0.629,3.864-1.118,7.722-1.437,11.56L130.417,68.08L76.965,24.606z M50.569,87.469c21.887-7.421,45.872-8.133,68.369-1.794
				l70.469,57.114c3.827,7.434,6.846,15.23,9.031,23.303l-55.488-29.528l-0.004-0.002L50.569,87.469z M179.674,182.427
				L32.743,208.11c17.189-26.574,44.595-44.987,76.334-50.56c8.592-1.459,17.351-1.941,26.073-1.462l45.453,24.187
				C180.217,180.945,179.907,181.667,179.674,182.427z M191.539,488.514l6.966-41.796h34.541l6.966,41.796H191.539z M191.539,425.82
				l6.966-41.796h34.541l6.966,41.796H191.539z M191.539,363.126l6.966-41.796h34.541l6.966,41.796H191.539z M191.539,300.432
				l6.966-41.796h34.541l6.966,41.796H191.539z M191.551,237.737l6.247-37.276l20.591-3.624l15.254,2.684l6.37,38.215H191.551z
				 M250.651,179.803l42.937-22.837c11.74-1.487,23.204-1.305,34.074,0.577c31.784,5.579,59.192,23.994,76.376,50.568
				L251.52,181.443C251.278,180.867,250.987,180.319,250.651,179.803z"/>
			<rect x="0" y="363.124" width="151.51" height="20.898"/>
			<path d="M381.388,279.534c-48.322,0-88.243,36.638-93.457,83.592h-16.258v20.898h26.122H464.98H512v-20.898h-37.156
				C469.63,316.172,429.71,279.534,381.388,279.534z M308.989,363.126c5.086-35.399,35.615-62.694,72.399-62.694
				s67.313,27.295,72.399,62.694H308.989z"/>
			<rect x="370.939" y="237.736" width="20.898" height="31.347"/>
			
				<rect x="446.694" y="253.219" transform="matrix(0.7071 0.7071 -0.7071 0.7071 326.0052 -243.6727)" width="20.898" height="36.937"/>
			
				<rect x="295.177" y="253.22" transform="matrix(-0.7071 0.7071 -0.7071 -0.7071 713.8479 247.6912)" width="20.898" height="36.937"/>
			<rect x="480.653" y="316.103" width="31.347" height="20.898"/>
			<rect x="303.02" y="404.92" width="62.694" height="20.898"/>
			<rect x="354.22" y="446.716" width="57.469" height="20.898"/>
			<rect x="105.535" y="404.92" width="51.2" height="20.898"/>
			<rect x="94.041" y="451.94" width="52.245" height="20.898"/>
			<rect x="437.812" y="409.099" width="74.188" height="20.898"/>
			<rect x="0" y="419.548" width="72.098" height="20.898"/>
		</g>
	</g>
</g>
</svg>

<svg width="512" height="512" viewBox="0 0 512 512" fill="none" xmlns="http://www.w3.org/2000/svg">
<path d="M261.199 488.514L254.203 446.537C256.57 446.11 258.741 444.887 260.32 443.023C262.305 440.679 263.16 437.581 262.654 434.551L254.203 383.843C256.57 383.416 258.741 382.193 260.32 380.329C262.305 377.985 263.16 374.887 262.654 371.857L254.203 321.149C256.57 320.722 258.741 319.499 260.32 317.635C262.305 315.291 263.16 312.193 262.654 309.163L254.203 258.455C256.57 258.028 258.741 256.805 260.32 254.941C262.305 252.597 263.16 249.499 262.654 246.47L255.467 203.347L421.383 232.357C421.984 232.463 422.586 232.513 423.184 232.513C426.333 232.513 429.354 231.088 431.356 228.574C433.737 225.584 434.295 221.53 432.812 218.007C414.801 175.257 376.843 144.957 331.25 136.952C331.248 136.952 331.245 136.951 331.245 136.951L408.76 95.761C412.138 93.965 414.267 90.468 414.305 86.64C414.345 82.815 412.289 79.273 408.949 77.408C388.732 66.126 366.468 60.336 343.912 60.22L384.328 27.354C387.299 24.937 388.709 21.09 388.006 17.325C387.302 13.56 384.595 10.483 380.952 9.30399C336.728 -5.00001 288.96 3.84999 253.204 32.962C237.141 45.964 224.389 62.557 215.78 81.307C207.176 62.558 194.435 45.97 178.394 32.979C142.594 3.85199 94.825 -5.00101 50.6 9.30699C46.957 10.486 44.25 13.563 43.546 17.328C42.841 21.092 44.252 24.939 47.224 27.356L87.947 60.476C64.9 60.444 41.957 66.21 21.668 77.521C18.325 79.384 16.269 82.925 16.308 86.753C16.346 90.579 18.473 94.079 21.852 95.874L100.863 137.864C57.373 147.057 21.368 176.723 3.964 218.006C2.479 221.529 3.036 225.583 5.419 228.573C7.421 231.088 10.443 232.513 13.592 232.513C14.189 232.513 14.793 232.462 15.392 232.357L175.97 204.288L168.9 246.459C168.392 249.489 169.244 252.59 171.229 254.936C172.808 256.802 174.98 258.027 177.348 258.454L168.897 309.162C168.392 312.192 169.246 315.289 171.231 317.634C172.81 319.498 174.981 320.721 177.348 321.148L168.897 371.856C168.392 374.886 169.246 377.983 171.231 380.328C172.81 382.192 174.981 383.415 177.348 383.842L168.897 434.55C168.392 437.58 169.246 440.677 171.231 443.022C172.81 444.886 174.981 446.109 177.348 446.536L170.352 488.513H0V509.411H512V488.513H261.199V488.514ZM380.125 87.312L285.484 137.602L285.48 137.605L231.978 166.061C233.977 158.608 236.749 151.356 240.273 144.363L313.32 85.094C335.647 79.112 358.728 79.933 380.125 87.312ZM266.373 49.188C291.321 28.875 323.18 20.231 354.585 24.607L301.877 67.469L227.843 127.538C227.523 123.678 227.031 119.805 226.396 115.926C231.67 89.487 245.797 65.841 266.373 49.188ZM76.965 24.606C108.373 20.231 140.242 28.881 165.22 49.205C185.762 65.839 199.882 89.486 205.155 115.929C204.526 119.793 204.037 123.651 203.718 127.489L130.417 68.08L76.965 24.606ZM50.569 87.469C72.456 80.048 96.441 79.336 118.938 85.675L189.407 142.789C193.234 150.223 196.253 158.019 198.438 166.092L142.95 136.564L142.946 136.562L50.569 87.469ZM179.674 182.427L32.743 208.11C49.932 181.536 77.338 163.123 109.077 157.55C117.669 156.091 126.428 155.609 135.15 156.088L180.603 180.275C180.217 180.945 179.907 181.667 179.674 182.427ZM191.539 488.514L198.505 446.718H233.046L240.012 488.514H191.539ZM191.539 425.82L198.505 384.024H233.046L240.012 425.82H191.539ZM191.539 363.126L198.505 321.33H233.046L240.012 363.126H191.539ZM191.539 300.432L198.505 258.636H233.046L240.012 300.432H191.539ZM191.551 237.737L197.798 200.461L218.389 196.837L233.643 199.521L240.013 237.736H191.551V237.737ZM250.651 179.803L293.588 156.966C305.328 155.479 316.792 155.661 327.662 157.543C359.446 163.122 386.854 181.537 404.038 208.111L251.52 181.443C251.278 180.867 250.987 180.319 250.651 179.803Z" fill="white"/>
<path d="M151.51 363.124H0V384.022H151.51V363.124Z" fill="white"/>
<path d="M381.388 279.534C333.066 279.534 293.145 316.172 287.931 363.126H271.673V384.024H297.795H464.98H512V363.126H474.844C469.63 316.172 429.71 279.534 381.388 279.534ZM308.989 363.126C314.075 327.727 344.604 300.432 381.388 300.432C418.172 300.432 448.701 327.727 453.787 363.126H308.989Z" fill="white"/>
<path d="M391.837 237.736H370.939V269.083H391.837V237.736Z" fill="white"/>
<path d="M477.588 266.013L462.811 251.236L436.693 277.354L451.47 292.131L477.588 266.013Z" fill="white"/>
<path d="M311.299 292.136L326.076 277.359L299.958 251.241L285.181 266.018L311.299 292.136Z" fill="white"/>
<path d="M512 316.103H480.653V337.001H512V316.103Z" fill="white"/>
<path d="M365.714 404.92H303.02V425.818H365.714V404.92Z" fill="white"/>
<path d="M411.689 446.716H354.22V467.614H411.689V446.716Z" fill="white"/>
<path d="M156.735 404.92H105.535V425.818H156.735V404.92Z" fill="white"/>
<path d="M146.286 451.94H94.041V472.838H146.286V451.94Z" fill="white"/>
<path d="M512 409.099H437.812V429.997H512V409.099Z" fill="white"/>
<path d="M72.098 419.548H0V440.446H72.098V419.548Z" fill="white"/>
</svg>
